packages/core/src/browser/icons/remove-all.svg

<svg viewBox="0 0 16 16" xmlns="http://www.w3.org/2000/svg"><path d="m16 0v16h-16v-16z" fill="#f6f6f6" opacity="0"/><path d="m16 1v11h-2v2h-2v2h-12v-11h2v-2h2v-2z" fill="#f6f6f6"/><path d="m3 4h10v9h-1v-8h-9zm-2 11h10v-9h-10zm4-13v1h9v8h1v-9z" fill="#424242"/><path d="m6.75 10.75 2.25 2.25h-1.5l-1.5-1.5-1.5 1.5h-1.5l2.25-2.25-2.25-2.25h1.5l1.5 1.5 1.5-1.5h1.5z" fill="#f0eff1"/></svg>

<!--Copyright (c) Microsoft Corporation. All rights reserved.-->
<!--Copyright (C) 2018 TypeFox and others.-->
<!--Licensed under the MIT License. See License.txt in the project root for license information.-->
<svg xmlns="http://www.w3.org/2000/svg" viewBox="0 0 16 16"><defs><style>.icon-canvas-transparent,.icon-vs-out{fill:#f6f6f6;}.icon-canvas-transparent{opacity:0;}.icon-vs-bg{fill:#424242;}.icon-vs-fg{fill:#f0eff1;}</style></defs><title>remove-all_16x</title><g id="canvas"><path class="icon-canvas-transparent" d="M16,0V16H0V0Z"/></g><g id="outline"><path class="icon-vs-out" d="M16,1V12H14v2H12v2H0V5H2V3H4V1Z"/></g><g id="iconBg"><path class="icon-vs-bg" d="M3,4H13v9H12V5H3ZM1,15H11V6H1ZM5,2V3h9v8h1V2Z"/></g><g id="iconFg"><path class="icon-vs-fg" d="M6.75,10.75,9,13H7.5L6,11.5,4.5,13H3l2.25-2.25L3,8.5H4.5L6,10,7.5,8.5H9Z"/></g></svg>
